X:1
T:Dog On The Piano
T:Dog On The Piano
T:By TED SHAPIRO
T:Copyright 1924 by Jack Mills Inv
T:Copyright 1924 by Jack Mills Inv
T:Copyright 1924 by Jack Mills Inv
T:Copyright 1924 by Jack Mills Inv
T:Copyright 1924 by Jack Mills Inv
C:By TED SHAPIRO
Z:Copyright 1924 by Jack Mills Inv
%%score { ( 1 2 ) | ( 3 4 ) }
L:1/8
Q:1/4=190
M:2/2
K:Db
V:1 treble nm="Piano" snm="Pno."
V:2 treble 
V:3 bass 
V:4 bass 
V:1
"^Allegro moderato"!f! [ege'] [ege']2 [ege']- [ege'][ff'] [ege']2 | [Aca] [Aca]2 [Aca]- [Aca]4 | %2
 [EGe] [EGe]2 [EGe]- [EGe][Ff] [EGe]2 | [Acga]2 z2 z2 || !>!_b>.a |:!mf! !>![cgb]2 z2 z4 | %6
 z4 z3/2 .a<!>!b.a/ | !>![dfb]2 z2 z4 | z8 | %9
!f!{/[dd']} !>![c=gc']2 [Bgb]2{/[dd']} !>![cgc']2 [Bgb]2 | %10
{/[dd']} !>![c_gc'].[Bgb] [Bgb]2 !tenuto![Bgb]4 | %11
{/[dd']} !>![cfc']2 [Bfb]2{/[dd']} !>![cfc']2 [Bfb]2 | %12
{/[dd']} !>![cfc'].[Bfb] !tenuto![Bfb]4 !>!_b>.a |!mf! !>![cgb]2 z2 z4 | z4 z3/2 .a<!>!b.a/ | %15
 !>![dfb]2 z2 z4 | z8 |!f!{/[dd']} !>![c=gc']2 [Bgb]2{/[dd']} !>![cgc']2 [Bgb]2 | %18
{/[dd']} !>![c_gc'].[Bgb] [Bgb]2 [Aga] [Bgb]2 !>![dd']- | [dd']8- |1 [dd']2 z2 z2 !>!_b>.a :|2 %21
{/x-} [dd']2 (!>!_b>a [cgb]2) z3/2 ([ea]/ |:!mp! [fb]>).[ad'] .[fb]>.[ea] .[df]>.[Be] .[Ad]>.[Be] | %23
 [df]4- [df]2 z3/2 ([ea]/ | [fb]>).[ad'] .[fb]>.[ea] .[df]>.[Be] .[Ad]>.[Be] | %25
 [_cf]4- [cf]2!<(! z ([ad']!<)! |!mf! [be']).[d'g']z([ad'] [be']).[d'g']z([ad'] | %27
 [be']>).[d'g'].[be']>.[ad'] [be'].[d'g']z([ea] | [fb]).[ad']z([ea] [fb]).[ad']z([cf] | %29
 [=d=g]).[fb]z([cf] [dg]).[fb]z([fb] | [=gc'])[be']z([fb] [gc']).[be']z([Be] | %31
 [cf])[ea]z!>![Af]- [Af].[=G=e].[_G_e]!>![Fd]- | d8- |1 d2 (!>!_b>a [cgb]2) z3/2 [ea]/ :|2 %34
{/x-} d2 z2 z2 !>!_b>.a ||!mf! !>![cgb]2 z2 z4 | z4 z3/2 .a<!>!b.a/ | !>![dfb]2 z2 z4 | z8 | %39
!f!{/[dd']} !>![c=gc']2 [Bgb]2{/[dd']} !>![cgc']2 [Bgb]2 | %40
{/[dd']} !>![c_gc'].[Bgb] [Bgb]2 !tenuto![Bgb]4 | %41
{/[dd']} !>![cfc']2 [Bfb]2{/[dd']} !>![cfc']2 [Bfb]2 | %42
{/[dd']} !>![cfc'].[Bfb] !tenuto![Bfb]4 !>!_b>.a |!mf! !>![cgb]2 z2 z4 | z4 z3/2 .a<!>!b.a/ | %45
 !>![dfb]2 z2 z4 | z8 |!f!{/[dd']} !>![c=gc']2 [Bgb]2{/[dd']} !>![cgc']2 [Bgb]2 | %48
{/[dd']} !>![c_gc'].[Bgb] [Bgb]2 [Aga] [Bgb]2 !>![dd']- | [dd']8- | [dd']2 z2 || %51
[K:Ab][M:2/2]!f!"^TRIO"!8va(! !>![d'_f'd'']4 | %52
 !>![c'e'c'']2 !>![bd'b']2 !>![a_c'a']2!8va)! !>![_g__b_g']2 | %53
!>(! !>![faf']2 !>![e_ge']2 !>![_d_f_d']2 !>![cec']2!>)! | %54
!<(! !>![Bdb] !>![Bdb]2 !^![Bdb]- [Bdb][=A=a] !>![Bdb]2!<)! | !>![ege']4 z4 |: %56
!p! (3(efe c>)f (3(efe B>)(f | (3efe c>)!<(!(f (3efe c>)!<)!(b | (3aba f>)(b (3aba e>)(b | %59
 (3aba f2) z4 |!mf! z2 ([C_Gc]2 [=B,F=B]2 [_B,_F_B]2 | [=A,E=A]2) ([=F_c=f]2 [=EB=e]2 [_E=A_e]2 | %62
!<(! =d>B) =c>A B [=DAc]2 B!<)! | !>![EGe]2 z2 z4 |!p! (3(efe c>)f (3(efe B>)(f | %65
 (3efe c>)!<(!(f (3efe c>)!<)!(b | (3aba f>)(b (3aba e>)(b | (3aba f2) z4 | %68
!mf! z2 ([C_Gc]2 [=B,F=B]2 [_B,_F_B]2 | [=A,E=A]2) ([=F_c=f]2 [=EB=e]2 [_E=A_e]2 | %70
!<(! [=D_A=c]) [DA=d]2 [EGe]-!<)! ec [EGe]2 |1 [Aca]2 z2 z4 :|2 [Aca]2 z2 z2 !>!_b>.a || %73
[K:Db]!f! !>!.[c!courtesy!_gb].[cgb]z.a !>!.[=Bf_b].[Bfb]z.a | %74
 !>!.[cgb].[cgb]z.a !>!.[c=gb].[cgb]z.a | !>!.[dfb].[dfb]z.a !>!.[cf=a].[cfa]z.a | %76
 !>![Bf_ab]2 z2 z4 |!f!{/[dd']} !>![c=gc']2 [Bgb]2{/[dd']} !>![cgc']2 [Bgb]2 | %78
{/[dd']} !>![c_gc'].[Bgb] [Bgb]2 !tenuto![Bgb]4 | %79
{/[dd']} !>![cfc']2 [Bfb]2{/[dd']} !>![cfc']2 [Bfb]2 | %80
{/[dd']} !>![cfc'].[Bfb] !tenuto![Bfb]4 !>!_b>.a | %81
 !>!.[c!courtesy!_gb].[cgb]z.a !>!.[=Bf_b].[Bfb]z.a | !>!.[cgb].[cgb]z.a !>!.[c=gb].[cgb]z.a | %83
 !>!.[dfb].[dfb]z.a !>!.[cf=a].[cfa]z.a | !>![Bf_ab]2 z2 z4 | %85
{/[dd']} !>![c=gc']2 [Bgb]2{/[dd']} !>![cgc']2 [Bgb]2 | %86
{/[dd']} !>![c=gc'].[Bgb]!<(! [Bgb]2 [A_ga]!<)! [Bgb]3 | %87
!ff! .[dfd'] !>![dfd']2 .[Aa] .[B=eb] !>![Beb]2 .[Aa] | %88
 .[dfd'] !>![dfd']2 .[Aa] .[B=eb] !>![Beb]2 .[Aa] | %89
 .[dfd'] !>![dfd']2 .[Aa] .[B=eb] !>![Beb]2 .[Aa] |!<(! !>![Ada][Bb] !>![Aca]2!<)! !>![dfd']2 z2 |] %91
V:2
 [EBd] [EBd]2 [EBd]- [EBd]2 [EBd]2 | [A,EG] [A,EG]2 [A,EG]- [A,EG]4 | x8 | x6 || !>![=Bf]2 |: x8 | %6
 x4 z2 !>![d=g]2 | x8 | x8 | x8 | x8 | x8 | x6 !>![=Bf]2 | x8 | x4 z2 !>![d=g]2 | x8 | x8 | x8 | %18
 x8 | z2 ([FAd]2 [=E=Gd]2 [_E_Gd]2 |1 [DFd]2) x4 !>![=Bf]2 :|2 [DFd]2 !>![=Bf]2 x4 |: x8 | x8 | %24
 x8 | x8 | x8 | x8 | x8 | x8 | x8 | x8 | F2 ([FA]2 [=E=G]2 [_E_G]2 |1 [DF]2) !>![=Bf]2 x4 :|2 %34
 [DF]2 x4 !>![=Bf]2 || x8 | x4 z2 !>![d=g]2 | x8 | x8 | x8 | x8 | x8 | x6 !>![=Bf]2 | x8 | %44
 x4 z2 !>![d=g]2 | x8 | x8 | x8 | x8 | z2 ([FAd]2 [=E=Gd]2 [_E_Gd]2 | [DFd]2) x2 || %51
[K:Ab][M:2/2]!8va(! !>![B_fa]4 | !>![=Ae=g]2 !>![=Gd=f]2 !>![F_ce]2!8va)! !>![E__Bd]2 | %53
 !>![=DA=c]2 !>![=C_G_B]2 !>![B,_FA]2 !>![=A,E=G]2 | %54
 !>![=G,D=F] !>![G,DF]2 !^![G,DF]- [G,DF]2 !>![G,DF]2 | x8 |: x8 | x8 | x8 | x8 | x8 | x8 | %62
 [=D_A]2 D2 x4 | x8 | x8 | x8 | x8 | x8 | x8 | x8 | x4 [EG]2 x2 |1 x8 :|2 x6 !>![=Bf]2 || %73
[K:Db] x8 | x8 | x8 | x8 | x8 | x8 | x8 | x6 !>![_Bf]2 | x8 | x8 | x8 | x8 | x8 | x8 | x8 | x8 | %89
 x8 | x8 |] %91
V:3
"^L.H." x8 | x8 | [E,B,D] [E,B,D]2 [E,B,D]- [E,B,D]2 [E,B,D]2 | %3
 !arpeggio![A,,E,C]2 !^![A,,,A,,]2 !^![A,,,A,,]2 || !>![=D,,=D,]2 |: %5
 !>![E,,E,]2 [A,CG]2 !>![=D,,=D,]2 [A,=B,F]2 | !>![E,,E,]2 [A,CG]2 !>![=E,,=E,]2 [_B,D=G]2 | %7
 !>![F,,F,]2 [A,DF]2 !>![_E,,_E,]2 [=A,CF]2 | !>![=D,,=D,]2 [_A,B,F]2 !>![B,,,B,,]2 [B,=DA]2 | %9
 !arpeggio!!>![E,,B,,=G,]2 [_DE=G]2 !>![E,,E,]2 [DEG]2 | %10
 !arpeggio!!>![A,,E,C]2 [A,C_G]2 A,,2 [A,CG]2 | !arpeggio!!>![D,,A,,F,]2 [A,DF]2 !>!A,,2 [A,DF]2 | %12
 !arpeggio!!>![D,,A,,F,]2 [A,DF]2 !>![D,,D,]2 !>![=D,,=D,]2 | %13
 !>![E,,E,]2 [A,CG]2 !>![=D,,=D,]2 [A,=B,F]2 | !>![E,,E,]2 [A,CG]2 !>![=E,,=E,]2 [_B,D=G]2 | %15
 !>![F,,F,]2 [A,DF]2 !>![_E,,_E,]2 [=A,CF]2 | !>![=D,,=D,]2 [_A,B,F]2 !>![B,,,B,,]2 [B,=DA]2 | %17
 !arpeggio!!>![E,,B,,=G,]2 [_DE=G]2 !>![E,,E,]2 [DEG]2 | %18
 !arpeggio!!>![A,,E,C]2 [A,C_G]2 A,,2 [A,CG]2 | !arpeggio![D,,A,,F,]2 ([D,_C]2 [D,B,]2 [D,__B,]2 |1 %20
 [D,A,]2) !^![A,,,A,,]2 !^![A,,,A,,]2 !^![=D,,=D,]2 :|2 %21
 [D,A,]2 ([=D,,=D,]2 [E,,E,]2) !^![A,,,A,,] z |: !arpeggio![D,,A,,F,]2 [A,DF]2 A,,2 [A,DF]2 | %23
 !arpeggio![D,,A,,F,]2 [A,DF]2 A,,2 [A,CG]2 | !arpeggio![D,,A,,F,]2 [A,DF]2 A,,2 [A,DF]2 | %25
 !arpeggio![D,,A,,F,]2 [_CDF]2 [D,,D,]2 [CDF]2 | !arpeggio![G,,D,B,]2 [B,DG]2 [D,,D,]2 [B,DG]2 | %27
 !arpeggio![G,,D,B,]2 [B,DG]2 G,,2 [B,DG]2 | !arpeggio![D,,A,,F,]2 [A,DF]2 A,,2 [A,DF]2 | %29
 !arpeggio![B,,F,=D]2 [B,DA]2 B,,2 [B,DA]2 | !arpeggio![E,,B,,=G,]2 [_DE=G]2 [E,,E,]2 [DEG]2 | %31
 !arpeggio![A,,E,C]2 [A,C_G]2 A,,2 [A,C]2 | z2 (_C2 B,2 __B,2 |1 %33
 A,2) [=D,,=D,]2 [E,,E,]2 !^![A,,,A,,] z :|2 A,2 !^![A,,,A,,]2 !^![A,,,A,,]2 !>![=D,,=D,]2 || %35
 !>![E,,E,]2 [A,CG]2 !>![=D,,=D,]2 [A,=B,F]2 | !>![E,,E,]2 [A,CG]2 !>![=E,,=E,]2 [_B,D=G]2 | %37
 !>![F,,F,]2 [A,DF]2 !>![_E,,_E,]2 [=A,CF]2 | !>![=D,,=D,]2 [_A,B,F]2 !>![B,,,B,,]2 [B,=DA]2 | %39
 !arpeggio!!>![E,,B,,=G,]2 [_DE=G]2 !>![E,,E,]2 [DEG]2 | %40
 !arpeggio!!>![A,,E,C]2 [A,C_G]2 A,,2 [A,CG]2 | !arpeggio!!>![D,,A,,F,]2 [A,DF]2 !>!A,,2 [A,DF]2 | %42
 !arpeggio!!>![D,,A,,F,]2 [A,DF]2 !>![D,,D,]2 !>![=D,,=D,]2 | %43
 !>![E,,E,]2 [A,CG]2 !>![=D,,=D,]2 [A,=B,F]2 | !>![E,,E,]2 [A,CG]2 !>![=E,,=E,]2 [_B,D=G]2 | %45
 !>![F,,F,]2 [A,DF]2 !>![_E,,_E,]2 [=A,CF]2 | !>![=D,,=D,]2 [_A,B,F]2 !>![B,,,B,,]2 [B,=DA]2 | %47
 !arpeggio!!>![E,,B,,=G,]2 [_DE=G]2 !>![E,,E,]2 [DEG]2 | %48
 !arpeggio!!>![A,,E,C]2 [A,C_G]2 A,,2 [A,CG]2 | !arpeggio![D,,A,,F,]2 ([D,_C]2 [D,B,]2 [D,__B,]2 | %50
 [D,A,]2) z2 ||[K:Ab][M:2/2]"^L.H." x4 | x8 | x8 | x8 | !arpeggio!!>![E,B,DG]4 !^!E,, z z2 |: %56
 z2 !arpeggio![A,,E,C]2 z2 !arpeggio![B,,G,D]2 | z2 !arpeggio![C,A,E]2 z2 !arpeggio![E,A,C_G]2 | %58
 z2 !arpeggio![F,DA]2 z2 !arpeggio![E,A,C_G]2 | z2 !arpeggio![D,A,F]2 z4 | %60
 z2 ([A,,E,]2 [=G,,=D,]2 [_G,,_D,]2 | [F,,C,]2) [D,_A,]2 [C,G,]2 [_C,_G,]2 | F,2 (=E,2 F,2 ^F,2 | %63
 !arpeggio!!>![E,,B,,G,]2) !^![E,,!courtesy!_E,]2 !^![F,,!courtesy!=F,]2 !^![G,,G,]2 | %64
 z2 !arpeggio![A,,E,C]2 z2 !arpeggio![B,,G,D]2 | z2 !arpeggio![C,A,E]2 z2 !arpeggio![E,A,C_G]2 | %66
 z2 !arpeggio![F,DA]2 z2 !arpeggio![E,A,C_G]2 | z2 !arpeggio![D,A,F]2 z4 | %68
 z2 ([A,,E,]2 [=G,,=D,]2 [_G,,_D,]2 | [F,,C,]2) ([D,_A,]2 [C,G,]2 [_C,_G,]2 | %70
 [B,,F,]4) E,,2 [E,=G,_D]2 |1 !arpeggio![A,,E,C]2 !^![E,,E,]2 !^![F,,F,]2 !^![G,,G,]2 :|2 %72
 !arpeggio![A,,E,C]2 !^![A,,,A,,]2 !^![A,,,A,,]2 !>![=D,,=D,]2 || %73
[K:Db] !>![E,,E,]2 [A,C!courtesy!_G]2 !>![=D,,=D,]2 [A,=B,F]2 | %74
 !>![E,,E,]2 [A,CG]2 !>![=E,,=E,]2 [_B,D=G]2 | !>![F,,F,]2 [A,DF]2 !>![_E,,_E,]2 [=A,CF]2 | %76
 !>![=D,,=D,]2 [_A,B,F]2 !>![B,,,B,,]2 [B,=DA]2 | %77
 !arpeggio!!>![E,,B,,=G,]2 [_DE=G]2 [DEG]2 !>![E,,E,]2 | [DE=G]2 [DEG]2 A,,2 [A,C_G]2 | %79
 !arpeggio!!>![D,,A,,F,]2 [A,DF]2 [A,DF]2 [D,,D,]2 | [A,DF]2 [A,DF]2 !>![D,,D,]2 !>![=D,,=D,]2 | %81
 !>![E,,E,]2 [A,CG]2 !>![=D,,=D,]2 [A,=B,F]2 | !>![E,,E,]2 [A,CG]2 !>![=E,,=E,]2 [_B,D=G]2 | %83
 !>![F,,F,]2 [A,DF]2 !>![_E,,_E,]2 [=A,CF]2 | !>![=D,,=D,]2 [_A,B,F]2 !>![B,,,B,,]2 [B,=DA]2 | %85
 !arpeggio!!>![E,,B,,=G,]2 [_DE=G]2 [DEG]2 !>![E,,E,]2 | %86
 [DE=G]2 [DEG]2 !arpeggio![A,,E,C]2 [A,C_G]2 | !arpeggio![D,,A,,F,]2 [A,DF]2 A,,2 [A,CG]2 | %88
 !arpeggio![D,,A,,F,]2 [A,DF]2 A,,2 [A,CG]2 | !arpeggio![D,,A,,F,]2 [A,DF]2 A,,2 [A,CG]2 | %90
 !arpeggio!!>![F,,D,A,]2 !arpeggio!!>![E,,A,,C,G,]2 !arpeggio!!>![D,,A,,F,]2 z2 |] %91
V:4
 x8 | x8 | x8 | x6 || x2 |: x8 | x8 | x8 | x8 | x8 | x8 | x8 | x8 | x8 | x8 | x8 | x8 | x8 | x8 | %19
 x8 |1 x8 :|2 x8 |: x8 | x8 | x8 | x8 | x8 | x8 | x8 | x8 | x8 | x8 | [D,,D,]8- |1 [D,,D,]2 x6 :|2 %34
{/x-} [D,,D,]2 x6 || x8 | x8 | x8 | x8 | x8 | x8 | x8 | x8 | x8 | x8 | x8 | x8 | x8 | x8 | x8 | %50
 x4 ||[K:Ab][M:2/2] x4 | x8 | x8 | x8 | x8 |: x8 | x8 | x8 | x8 | x8 | x8 | B,,8 | x8 | x8 | x8 | %66
 x8 | x8 | x8 | x8 | x8 |1 x8 :|2 x8 ||[K:Db] x8 | x8 | x8 | x8 | x8 | x8 | x8 | x8 | x8 | x8 | %83
 x8 | x8 | x8 | x8 | x8 | x8 | x8 | x8 |] %91

